images/50741800.svg

<?xml version="1.0" encoding="UTF-8"?>
<svg xmlns="http://www.w3.org/2000/svg" xmlns:xlink="http://www.w3.org/1999/xlink" width="300pt" height="300pt" viewBox="0 0 300 300" version="1.1">
<defs>
<g>
<symbol overflow="visible" id="glyph0-0">
<path style="stroke:none;" d="M 0.453125 1.59375 L 0.453125 -6.34375 L 4.953125 -6.34375 L 4.953125 1.59375 Z M 0.953125 1.09375 L 4.453125 1.09375 L 4.453125 -5.84375 L 0.953125 -5.84375 Z M 0.953125 1.09375 "/>
</symbol>
<symbol overflow="visible" id="glyph0-1">
<path style="stroke:none;" d="M 0.890625 -6.5625 L 4.65625 -6.5625 L 4.65625 -5.8125 L 1.765625 -5.8125 L 1.765625 -3.875 L 4.375 -3.875 L 4.375 -3.140625 L 1.765625 -3.140625 L 1.765625 0 L 0.890625 0 Z M 0.890625 -6.5625 "/>
</symbol>
<symbol overflow="visible" id="glyph0-2">
<path style="stroke:none;" d="M 0.890625 -6.5625 L 2.078125 -6.5625 L 4.984375 -1.078125 L 4.984375 -6.5625 L 5.84375 -6.5625 L 5.84375 0 L 4.65625 0 L 1.75 -5.484375 L 1.75 0 L 0.890625 0 Z M 0.890625 -6.5625 "/>
</symbol>
<symbol overflow="visible" id="glyph0-3">
<path style="stroke:none;" d="M 0.890625 -6.5625 L 1.765625 -6.5625 L 1.765625 -3.875 L 5 -3.875 L 5 -6.5625 L 5.890625 -6.5625 L 5.890625 0 L 5 0 L 5 -3.125 L 1.765625 -3.125 L 1.765625 0 L 0.890625 0 Z M 0.890625 -6.5625 "/>
</symbol>
<symbol overflow="visible" id="glyph0-4">
<path style="stroke:none;" d="M 3.546875 -5.953125 C 2.898438 -5.953125 2.382812 -5.710938 2 -5.234375 C 1.625 -4.753906 1.4375 -4.101562 1.4375 -3.28125 C 1.4375 -2.445312 1.625 -1.789062 2 -1.3125 C 2.382812 -0.832031 2.898438 -0.59375 3.546875 -0.59375 C 4.191406 -0.59375 4.703125 -0.832031 5.078125 -1.3125 C 5.453125 -1.789062 5.640625 -2.445312 5.640625 -3.28125 C 5.640625 -4.101562 5.453125 -4.753906 5.078125 -5.234375 C 4.703125 -5.710938 4.191406 -5.953125 3.546875 -5.953125 Z M 3.546875 -6.6875 C 4.460938 -6.6875 5.195312 -6.375 5.75 -5.75 C 6.300781 -5.132812 6.578125 -4.3125 6.578125 -3.28125 C 6.578125 -2.238281 6.300781 -1.410156 5.75 -0.796875 C 5.195312 -0.179688 4.460938 0.125 3.546875 0.125 C 2.617188 0.125 1.878906 -0.179688 1.328125 -0.796875 C 0.773438 -1.410156 0.5 -2.238281 0.5 -3.28125 C 0.5 -4.3125 0.773438 -5.132812 1.328125 -5.75 C 1.878906 -6.375 2.617188 -6.6875 3.546875 -6.6875 Z M 3.546875 -6.6875 "/>
</symbol>
</g>
</defs>
<g id="surface23997">
<rect x="0" y="0" width="300" height="300" style="fill:rgb(100%,100%,100%);fill-opacity:1;stroke:none;"/>
<path style="fill:none;stroke-width:1.2;stroke-linecap:butt;stroke-linejoin:miter;stroke:rgb(20%,80%,80%);stroke-opacity:1;stroke-miterlimit:10;" d="M 113.242188 126.191406 L 100.992188 124.898438 "/>
<path style="fill:none;stroke-width:1.2;stroke-linecap:butt;stroke-linejoin:miter;stroke:rgb(0%,0%,0%);stroke-opacity:1;stroke-miterlimit:10;" d="M 100.992188 124.898438 L 88.738281 123.605469 "/>
<path style=" stroke:none;fill-rule:nonzero;fill:rgb(100%,100%,100%);fill-opacity:1;" d="M 110.242188 120.691406 L 116.242188 120.691406 L 116.242188 131.691406 L 110.242188 131.691406 Z M 110.242188 120.691406 "/>
<g style="fill:rgb(20%,80%,80%);fill-opacity:1;">
  <use xlink:href="#glyph0-1" x="110.242188" y="129.354492"/>
</g>
<path style="fill:none;stroke-width:1.2;stroke-linecap:butt;stroke-linejoin:miter;stroke:rgb(0%,0%,0%);stroke-opacity:1;stroke-miterlimit:10;" d="M 88.738281 123.605469 L 74.246094 143.535156 "/>
<path style="fill:none;stroke-width:1.2;stroke-linecap:butt;stroke-linejoin:miter;stroke:rgb(0%,0%,0%);stroke-opacity:1;stroke-miterlimit:10;" d="M 82.597656 122.191406 L 71.007812 138.132812 "/>
<path style="fill:none;stroke-width:1.2;stroke-linecap:butt;stroke-linejoin:miter;stroke:rgb(0%,0%,0%);stroke-opacity:1;stroke-miterlimit:10;" d="M 78.722656 101.09375 L 88.738281 123.605469 "/>
<path style="fill:none;stroke-width:1.2;stroke-linecap:butt;stroke-linejoin:miter;stroke:rgb(0%,0%,0%);stroke-opacity:1;stroke-miterlimit:10;" d="M 74.246094 143.535156 L 49.742188 140.949219 "/>
<path style="fill:none;stroke-width:1.2;stroke-linecap:butt;stroke-linejoin:miter;stroke:rgb(0%,0%,0%);stroke-opacity:1;stroke-miterlimit:10;" d="M 49.742188 140.949219 L 42.496094 150.914062 "/>
<path style="fill:none;stroke-width:1.2;stroke-linecap:butt;stroke-linejoin:miter;stroke:rgb(20%,80%,80%);stroke-opacity:1;stroke-miterlimit:10;" d="M 42.496094 150.914062 L 35.25 160.878906 "/>
<path style="fill:none;stroke-width:1.2;stroke-linecap:butt;stroke-linejoin:miter;stroke:rgb(0%,0%,0%);stroke-opacity:1;stroke-miterlimit:10;" d="M 49.742188 140.949219 L 39.726562 118.4375 "/>
<path style="fill:none;stroke-width:1.2;stroke-linecap:butt;stroke-linejoin:miter;stroke:rgb(0%,0%,0%);stroke-opacity:1;stroke-miterlimit:10;" d="M 54.039062 136.34375 L 46.027344 118.332031 "/>
<path style=" stroke:none;fill-rule:nonzero;fill:rgb(100%,100%,100%);fill-opacity:1;" d="M 29.25 155.378906 L 35.25 155.378906 L 35.25 166.378906 L 29.25 166.378906 Z M 29.25 155.378906 "/>
<g style="fill:rgb(20%,80%,80%);fill-opacity:1;">
  <use xlink:href="#glyph0-1" x="29.25" y="164.041992"/>
</g>
<path style="fill:none;stroke-width:1.2;stroke-linecap:butt;stroke-linejoin:miter;stroke:rgb(0%,0%,0%);stroke-opacity:1;stroke-miterlimit:10;" d="M 39.726562 118.4375 L 54.21875 98.507812 "/>
<path style="fill:none;stroke-width:1.2;stroke-linecap:butt;stroke-linejoin:miter;stroke:rgb(0%,0%,0%);stroke-opacity:1;stroke-miterlimit:10;" d="M 54.21875 98.507812 L 78.722656 101.09375 "/>
<path style="fill:none;stroke-width:1.2;stroke-linecap:butt;stroke-linejoin:miter;stroke:rgb(0%,0%,0%);stroke-opacity:1;stroke-miterlimit:10;" d="M 56.0625 104.53125 L 75.664062 106.601562 "/>
<path style="fill:none;stroke-width:1.2;stroke-linecap:butt;stroke-linejoin:miter;stroke:rgb(0%,0%,0%);stroke-opacity:1;stroke-miterlimit:10;" d="M 78.722656 101.09375 L 85.96875 91.128906 "/>
<path style="fill:none;stroke-width:1.2;stroke-linecap:butt;stroke-linejoin:miter;stroke:rgb(0%,0%,100%);stroke-opacity:1;stroke-miterlimit:10;" d="M 85.96875 91.128906 L 93.214844 81.164062 "/>
<path style="fill:none;stroke-width:1.2;stroke-linecap:butt;stroke-linejoin:miter;stroke:rgb(0%,0%,100%);stroke-opacity:1;stroke-miterlimit:10;" d="M 93.214844 81.164062 L 105.46875 82.457031 "/>
<path style="fill:none;stroke-width:1.2;stroke-linecap:butt;stroke-linejoin:miter;stroke:rgb(0%,0%,0%);stroke-opacity:1;stroke-miterlimit:10;" d="M 105.46875 82.457031 L 117.722656 83.75 "/>
<path style=" stroke:none;fill-rule:nonzero;fill:rgb(100%,100%,100%);fill-opacity:1;" d="M 86.214844 75.664062 L 100.214844 75.664062 L 100.214844 86.664062 L 86.214844 86.664062 Z M 86.214844 75.664062 "/>
<g style="fill:rgb(0%,0%,100%);fill-opacity:1;">
  <use xlink:href="#glyph0-2" x="86.214844" y="84.327148"/>
  <use xlink:href="#glyph0-3" x="93.192383" y="84.327148"/>
</g>
<path style="fill:none;stroke-width:1.2;stroke-linecap:butt;stroke-linejoin:miter;stroke:rgb(0%,0%,0%);stroke-opacity:1;stroke-miterlimit:10;" d="M 117.722656 83.75 L 122.726562 95.007812 "/>
<path style="fill:none;stroke-width:1.2;stroke-linecap:butt;stroke-linejoin:miter;stroke:rgb(0%,0%,100%);stroke-opacity:1;stroke-miterlimit:10;" d="M 122.726562 95.007812 L 127.734375 106.261719 "/>
<path style="fill:none;stroke-width:1.2;stroke-linecap:butt;stroke-linejoin:miter;stroke:rgb(0%,0%,0%);stroke-opacity:1;stroke-miterlimit:10;" d="M 124.019531 83.644531 L 128.023438 92.648438 "/>
<path style="fill:none;stroke-width:1.2;stroke-linecap:butt;stroke-linejoin:miter;stroke:rgb(0%,0%,100%);stroke-opacity:1;stroke-miterlimit:10;" d="M 128.023438 92.648438 L 132.03125 101.65625 "/>
<path style="fill:none;stroke-width:1.2;stroke-linecap:butt;stroke-linejoin:miter;stroke:rgb(0%,0%,0%);stroke-opacity:1;stroke-miterlimit:10;" d="M 132.210938 63.820312 L 117.722656 83.75 "/>
<path style="fill:none;stroke-width:1.2;stroke-linecap:butt;stroke-linejoin:miter;stroke:rgb(0%,0%,100%);stroke-opacity:1;stroke-miterlimit:10;" d="M 127.734375 106.261719 L 139.988281 107.554688 "/>
<path style="fill:none;stroke-width:1.2;stroke-linecap:butt;stroke-linejoin:miter;stroke:rgb(0%,0%,0%);stroke-opacity:1;stroke-miterlimit:10;" d="M 139.988281 107.554688 L 152.238281 108.847656 "/>
<path style=" stroke:none;fill-rule:nonzero;fill:rgb(100%,100%,100%);fill-opacity:1;" d="M 124.734375 100.761719 L 131.734375 100.761719 L 131.734375 111.761719 L 124.734375 111.761719 Z M 124.734375 100.761719 "/>
<g style="fill:rgb(0%,0%,100%);fill-opacity:1;">
  <use xlink:href="#glyph0-2" x="124.734375" y="109.424805"/>
</g>
<path style="fill:none;stroke-width:1.2;stroke-linecap:butt;stroke-linejoin:miter;stroke:rgb(0%,0%,0%);stroke-opacity:1;stroke-miterlimit:10;" d="M 152.238281 108.847656 L 166.730469 88.917969 "/>
<path style="fill:none;stroke-width:1.2;stroke-linecap:butt;stroke-linejoin:miter;stroke:rgb(0%,0%,0%);stroke-opacity:1;stroke-miterlimit:10;" d="M 149 103.445312 L 160.59375 87.503906 "/>
<path style="fill:none;stroke-width:1.2;stroke-linecap:butt;stroke-linejoin:miter;stroke:rgb(0%,0%,0%);stroke-opacity:1;stroke-miterlimit:10;" d="M 166.730469 88.917969 L 156.71875 66.40625 "/>
<path style="fill:none;stroke-width:1.2;stroke-linecap:butt;stroke-linejoin:miter;stroke:rgb(0%,0%,0%);stroke-opacity:1;stroke-miterlimit:10;" d="M 166.730469 88.917969 L 191.234375 91.503906 "/>
<path style="fill:none;stroke-width:1.2;stroke-linecap:butt;stroke-linejoin:miter;stroke:rgb(0%,0%,0%);stroke-opacity:1;stroke-miterlimit:10;" d="M 156.71875 66.40625 L 132.210938 63.820312 "/>
<path style="fill:none;stroke-width:1.2;stroke-linecap:butt;stroke-linejoin:miter;stroke:rgb(0%,0%,0%);stroke-opacity:1;stroke-miterlimit:10;" d="M 153.660156 71.914062 L 134.054688 69.84375 "/>
<path style="fill:none;stroke-width:1.2;stroke-linecap:butt;stroke-linejoin:miter;stroke:rgb(0%,0%,0%);stroke-opacity:1;stroke-miterlimit:10;" d="M 193.578125 93.210938 L 200.824219 83.246094 "/>
<path style="fill:none;stroke-width:1.2;stroke-linecap:butt;stroke-linejoin:miter;stroke:rgb(100%,0%,0%);stroke-opacity:1;stroke-miterlimit:10;" d="M 200.824219 83.246094 L 208.070312 73.28125 "/>
<path style="fill:none;stroke-width:1.2;stroke-linecap:butt;stroke-linejoin:miter;stroke:rgb(0%,0%,0%);stroke-opacity:1;stroke-miterlimit:10;" d="M 188.890625 89.800781 L 196.136719 79.835938 "/>
<path style="fill:none;stroke-width:1.2;stroke-linecap:butt;stroke-linejoin:miter;stroke:rgb(100%,0%,0%);stroke-opacity:1;stroke-miterlimit:10;" d="M 196.136719 79.835938 L 203.382812 69.871094 "/>
<path style="fill:none;stroke-width:1.2;stroke-linecap:butt;stroke-linejoin:miter;stroke:rgb(0%,0%,0%);stroke-opacity:1;stroke-miterlimit:10;" d="M 191.234375 91.503906 L 201.25 114.019531 "/>
<path style=" stroke:none;fill-rule:nonzero;fill:rgb(100%,100%,100%);fill-opacity:1;" d="M 201.726562 66.078125 L 209.726562 66.078125 L 209.726562 77.078125 L 201.726562 77.078125 Z M 201.726562 66.078125 "/>
<g style="fill:rgb(100%,0%,0%);fill-opacity:1;">
  <use xlink:href="#glyph0-4" x="201.726562" y="74.741211"/>
</g>
<path style="fill:none;stroke-width:1.2;stroke-linecap:butt;stroke-linejoin:miter;stroke:rgb(0%,0%,0%);stroke-opacity:1;stroke-miterlimit:10;" d="M 201.25 114.019531 L 186.757812 133.949219 "/>
<path style="fill:none;stroke-width:1.2;stroke-linecap:butt;stroke-linejoin:miter;stroke:rgb(0%,0%,0%);stroke-opacity:1;stroke-miterlimit:10;" d="M 204.488281 119.421875 L 192.894531 135.367188 "/>
<path style="fill:none;stroke-width:1.2;stroke-linecap:butt;stroke-linejoin:miter;stroke:rgb(0%,0%,0%);stroke-opacity:1;stroke-miterlimit:10;" d="M 225.753906 116.605469 L 201.25 114.019531 "/>
<path style="fill:none;stroke-width:1.2;stroke-linecap:butt;stroke-linejoin:miter;stroke:rgb(0%,0%,0%);stroke-opacity:1;stroke-miterlimit:10;" d="M 186.757812 133.949219 L 196.769531 156.464844 "/>
<path style="fill:none;stroke-width:1.2;stroke-linecap:butt;stroke-linejoin:miter;stroke:rgb(0%,0%,0%);stroke-opacity:1;stroke-miterlimit:10;" d="M 196.769531 156.464844 L 221.277344 159.050781 "/>
<path style="fill:none;stroke-width:1.2;stroke-linecap:butt;stroke-linejoin:miter;stroke:rgb(0%,0%,0%);stroke-opacity:1;stroke-miterlimit:10;" d="M 199.828125 150.957031 L 219.433594 153.023438 "/>
<path style="fill:none;stroke-width:1.2;stroke-linecap:butt;stroke-linejoin:miter;stroke:rgb(0%,0%,0%);stroke-opacity:1;stroke-miterlimit:10;" d="M 196.769531 156.464844 L 182.277344 176.394531 "/>
<path style="fill:none;stroke-width:1.2;stroke-linecap:butt;stroke-linejoin:miter;stroke:rgb(0%,0%,0%);stroke-opacity:1;stroke-miterlimit:10;" d="M 221.277344 159.050781 L 235.765625 139.121094 "/>
<path style="fill:none;stroke-width:1.2;stroke-linecap:butt;stroke-linejoin:miter;stroke:rgb(0%,0%,0%);stroke-opacity:1;stroke-miterlimit:10;" d="M 235.765625 139.121094 L 225.753906 116.605469 "/>
<path style="fill:none;stroke-width:1.2;stroke-linecap:butt;stroke-linejoin:miter;stroke:rgb(0%,0%,0%);stroke-opacity:1;stroke-miterlimit:10;" d="M 229.46875 139.222656 L 221.457031 121.210938 "/>
<path style="fill:none;stroke-width:1.2;stroke-linecap:butt;stroke-linejoin:miter;stroke:rgb(0%,0%,0%);stroke-opacity:1;stroke-miterlimit:10;" d="M 225.753906 116.605469 L 233 106.640625 "/>
<path style="fill:none;stroke-width:1.2;stroke-linecap:butt;stroke-linejoin:miter;stroke:rgb(100%,0%,0%);stroke-opacity:1;stroke-miterlimit:10;" d="M 233 106.640625 L 240.246094 96.675781 "/>
<path style="fill:none;stroke-width:1.2;stroke-linecap:butt;stroke-linejoin:miter;stroke:rgb(100%,0%,0%);stroke-opacity:1;stroke-miterlimit:10;" d="M 240.246094 96.675781 L 252.496094 97.96875 "/>
<path style="fill:none;stroke-width:1.2;stroke-linecap:butt;stroke-linejoin:miter;stroke:rgb(0%,0%,0%);stroke-opacity:1;stroke-miterlimit:10;" d="M 252.496094 97.96875 L 264.75 99.261719 "/>
<path style=" stroke:none;fill-rule:nonzero;fill:rgb(100%,100%,100%);fill-opacity:1;" d="M 236.246094 91.175781 L 244.246094 91.175781 L 244.246094 102.175781 L 236.246094 102.175781 Z M 236.246094 91.175781 "/>
<g style="fill:rgb(100%,0%,0%);fill-opacity:1;">
  <use xlink:href="#glyph0-4" x="236.246094" y="99.838867"/>
</g>
<path style="fill:none;stroke-width:1.2;stroke-linecap:butt;stroke-linejoin:miter;stroke:rgb(0%,0%,0%);stroke-opacity:1;stroke-miterlimit:10;" d="M 182.277344 176.394531 L 167.789062 196.320312 "/>
<path style="fill:none;stroke-width:1.2;stroke-linecap:butt;stroke-linejoin:miter;stroke:rgb(0%,0%,0%);stroke-opacity:1;stroke-miterlimit:10;" d="M 176.140625 174.976562 L 164.546875 190.917969 "/>
<path style="fill:none;stroke-width:1.2;stroke-linecap:butt;stroke-linejoin:miter;stroke:rgb(0%,0%,0%);stroke-opacity:1;stroke-miterlimit:10;" d="M 185.519531 181.796875 L 173.925781 197.738281 "/>
<path style="fill:none;stroke-width:1.2;stroke-linecap:butt;stroke-linejoin:miter;stroke:rgb(0%,0%,0%);stroke-opacity:1;stroke-miterlimit:10;" d="M 167.789062 196.320312 L 153.296875 216.25 "/>
<path style="fill:none;stroke-width:1.2;stroke-linecap:butt;stroke-linejoin:miter;stroke:rgb(0%,0%,0%);stroke-opacity:1;stroke-miterlimit:10;" d="M 153.296875 216.25 L 146.050781 226.214844 "/>
<path style="fill:none;stroke-width:1.2;stroke-linecap:butt;stroke-linejoin:miter;stroke:rgb(100%,0%,0%);stroke-opacity:1;stroke-miterlimit:10;" d="M 146.050781 226.214844 L 138.804688 236.179688 "/>
<path style="fill:none;stroke-width:1.2;stroke-linecap:butt;stroke-linejoin:miter;stroke:rgb(0%,0%,0%);stroke-opacity:1;stroke-miterlimit:10;" d="M 153.296875 216.25 L 173.226562 230.742188 "/>
<path style="fill:none;stroke-width:1.2;stroke-linecap:butt;stroke-linejoin:miter;stroke:rgb(0%,0%,0%);stroke-opacity:1;stroke-miterlimit:10;" d="M 153.296875 216.25 L 133.367188 201.757812 "/>
<path style=" stroke:none;fill-rule:nonzero;fill:rgb(100%,100%,100%);fill-opacity:1;" d="M 123.804688 230.679688 L 138.804688 230.679688 L 138.804688 241.679688 L 123.804688 241.679688 Z M 123.804688 230.679688 "/>
<g style="fill:rgb(100%,0%,0%);fill-opacity:1;">
  <use xlink:href="#glyph0-3" x="123.804688" y="239.342773"/>
  <use xlink:href="#glyph0-4" x="130.819336" y="239.342773"/>
</g>
</g>
</svg>

<svg xmlns="http://www.w3.org/2000/svg" xmlns:xlink="http://www.w3.org/1999/xlink" width="300pt" height="300pt" viewBox="0 0 300 300"><defs><symbol overflow="visible"><path d="M.453 1.594v-7.938h4.5v7.938zm.5-.5h3.5v-6.938h-3.5zm0 0"/></symbol><symbol overflow="visible" id="a"><path d="M.89-6.563h3.766v.75h-2.89v1.938h2.61v.734h-2.61V0H.89zm0 0"/></symbol><symbol overflow="visible" id="b"><path d="M.89-6.563H2.08l2.906 5.485v-5.484h.86V0H4.656L1.75-5.484V0H.89zm0 0"/></symbol><symbol overflow="visible" id="c"><path d="M.89-6.563h.876v2.688H5v-2.688h.89V0H5v-3.125H1.766V0H.89zm0 0"/></symbol><symbol overflow="visible" id="d"><path d="M3.547-5.953c-.65 0-1.164.242-1.547.72-.375.48-.563 1.13-.563 1.952 0 .835.188 1.49.563 1.967.383.48.898.72 1.547.72.644 0 1.156-.24 1.53-.72.376-.476.564-1.132.564-1.968 0-.822-.187-1.474-.562-1.954-.375-.477-.887-.72-1.53-.72zm0-.734c.914 0 1.648.312 2.203.937.55.617.828 1.438.828 2.47 0 1.042-.277 1.87-.828 2.483-.555.617-1.29.922-2.203.922-.93 0-1.668-.305-2.22-.922C.774-1.41.5-2.237.5-3.28c0-1.033.273-1.853.828-2.47.55-.625 1.29-.938 2.22-.938zm0 0"/></symbol></defs><g><path fill="#fff" d="M0 0h300v300H0z"/><path d="M113.242 126.19l-12.25-1.292" stroke-width="1.2" stroke="#3cc" stroke-miterlimit="10" fill="none"/><path d="M100.992 124.898l-12.254-1.293" stroke-width="1.2" stroke="#000" stroke-miterlimit="10" fill="none"/><path d="M110.242 120.69h6v11h-6zm0 0" fill="#fff"/><use xlink:href="#a" x="110.242" y="129.354" fill="#3cc"/><path d="M88.738 123.605l-14.492 19.93M82.598 122.19l-11.59 15.943M78.723 101.094l10.015 22.51M74.246 143.535l-24.504-2.586M49.742 140.95l-7.246 9.964" stroke-width="1.2" stroke="#000" stroke-miterlimit="10" fill="none"/><path d="M42.496 150.914l-7.246 9.965" stroke-width="1.2" stroke="#3cc" stroke-miterlimit="10" fill="none"/><path d="M49.742 140.95l-10.015-22.512M54.04 136.344l-8.013-18.012" stroke-width="1.2" stroke="#000" stroke-miterlimit="10" fill="none"/><path d="M29.25 155.38h6v11h-6zm0 0" fill="#fff"/><use xlink:href="#a" x="29.25" y="164.042" fill="#3cc"/><path d="M39.727 118.438l14.492-19.93M54.22 98.508l24.503 2.586M56.063 104.53l19.6 2.072M78.723 101.094l7.246-9.965" stroke-width="1.2" stroke="#000" stroke-miterlimit="10" fill="none"/><path d="M85.97 91.13l7.245-9.966M93.215 81.164l12.254 1.293" stroke-width="1.2" stroke="#00f" stroke-miterlimit="10" fill="none"/><path d="M105.47 82.457l12.253 1.293" stroke-width="1.2" stroke="#000" stroke-miterlimit="10" fill="none"/><path d="M86.215 75.664h14v11h-14zm0 0" fill="#fff"/><g fill="#00f"><use xlink:href="#b" x="86.215" y="84.327"/><use xlink:href="#c" x="93.192" y="84.327"/></g><path d="M117.723 83.75l5.004 11.258" stroke-width="1.2" stroke="#000" stroke-miterlimit="10" fill="none"/><path d="M122.727 95.008l5.007 11.254" stroke-width="1.2" stroke="#00f" stroke-miterlimit="10" fill="none"/><path d="M124.02 83.645l4.003 9.003" stroke-width="1.2" stroke="#000" stroke-miterlimit="10" fill="none"/><path d="M128.023 92.648l4.008 9.008" stroke-width="1.2" stroke="#00f" stroke-miterlimit="10" fill="none"/><path d="M132.21 63.82l-14.487 19.93" stroke-width="1.2" stroke="#000" stroke-miterlimit="10" fill="none"/><path d="M127.734 106.262l12.254 1.293" stroke-width="1.2" stroke="#00f" stroke-miterlimit="10" fill="none"/><path d="M139.988 107.555l12.25 1.293" stroke-width="1.2" stroke="#000" stroke-miterlimit="10" fill="none"/><path d="M124.734 100.762h7v11h-7zm0 0" fill="#fff"/><use xlink:href="#b" x="124.734" y="109.425" fill="#00f"/><path d="M152.238 108.848l14.492-19.93M149 103.445l11.594-15.94M166.73 88.918l-10.01-22.512M166.73 88.918l24.504 2.586M156.72 66.406l-24.51-2.586M153.66 71.914l-19.605-2.07M193.578 93.21l7.246-9.964" stroke-width="1.2" stroke="#000" stroke-miterlimit="10" fill="none"/><path d="M200.824 83.246l7.246-9.965" stroke-width="1.2" stroke="#f00" stroke-miterlimit="10" fill="none"/><path d="M188.89 89.8l7.247-9.964" stroke-width="1.2" stroke="#000" stroke-miterlimit="10" fill="none"/><path d="M196.137 79.836l7.246-9.965" stroke-width="1.2" stroke="#f00" stroke-miterlimit="10" fill="none"/><path d="M191.234 91.504l10.016 22.516" stroke-width="1.2" stroke="#000" stroke-miterlimit="10" fill="none"/><path d="M201.727 66.078h8v11h-8zm0 0" fill="#fff"/><use xlink:href="#d" x="201.727" y="74.741" fill="#f00"/><path d="M201.25 114.02l-14.492 19.93M204.488 119.422l-11.593 15.945M225.754 116.605l-24.504-2.585M186.758 133.95l10.012 22.515M196.77 156.465l24.507 2.586M199.828 150.957l19.606 2.066M196.77 156.465l-14.493 19.93M221.277 159.05l14.49-19.93M235.766 139.12l-10.012-22.515M229.47 139.223l-8.013-18.012M225.754 116.605L233 106.64" stroke-width="1.2" stroke="#000" stroke-miterlimit="10" fill="none"/><path d="M233 106.64l7.246-9.964M240.246 96.676l12.25 1.293" stroke-width="1.2" stroke="#f00" stroke-miterlimit="10" fill="none"/><path d="M252.496 97.97l12.254 1.292" stroke-width="1.2" stroke="#000" stroke-miterlimit="10" fill="none"/><path d="M236.246 91.176h8v11h-8zm0 0" fill="#fff"/><use xlink:href="#d" x="236.246" y="99.839" fill="#f00"/><path d="M182.277 176.395L167.79 196.32M176.14 174.977l-11.593 15.94M185.52 181.797l-11.594 15.94M167.79 196.32l-14.493 19.93M153.297 216.25l-7.246 9.965" stroke-width="1.2" stroke="#000" stroke-miterlimit="10" fill="none"/><path d="M146.05 226.215l-7.245 9.965" stroke-width="1.2" stroke="#f00" stroke-miterlimit="10" fill="none"/><path d="M153.297 216.25l19.93 14.492M153.297 216.25l-19.93-14.492" stroke-width="1.2" stroke="#000" stroke-miterlimit="10" fill="none"/><path d="M123.805 230.68h15v11h-15zm0 0" fill="#fff"/><g fill="#f00"><use xlink:href="#c" x="123.805" y="239.343"/><use xlink:href="#d" x="130.819" y="239.343"/></g></g></svg>
